X:1
T:Pardismarschen
R:Pardismarschen
S:Efter Ernst Pettersson o Helge Henriksson Brattfors
O:Brattfors, Värmland
B:Låten har fått sitt namn av Pardis by i Brattfors socken, Filipstad
Z:ABC-transkribering av Per Saxholm
M:4/4
L:1/8
K:G
|:[A2D2]|B2(3BcBA2(3ABA|G2A2B2c2|d2e2c2(3cdc|B6:||:Bc|d2d2e2f2|g2g2d2Bd|[B2g2](3gagf2g2|e2[E2c2](3cdc Bc|d3cA2FA|1G6:|2G8]|

